dist/svg/chat-line.svg

<svg xmlns="http://www.w3.org/2000/svg" viewBox="0 0 24 24"><path d="M11.32 2.28c-1.88.127-3.677.804-5.236 1.972-.474.355-1.329 1.199-1.735 1.712a10 10 0 0 0-2.033 4.896c-.065.515-.065 1.765 0 2.28.118.937.438 2.088.801 2.874q.163.354.163.521c0 .091-.072.445-.16.786l-.321 1.239c-.206.798-.265 1.275-.203 1.65.119.72.514 1.096 1.253 1.196.395.053.784.003 1.576-.202l1.233-.319c.351-.091.713-.165.806-.165q.168 0 .522.163c.496.229 1.426.533 1.994.651a9.7 9.7 0 0 0 6.32-.792 9.72 9.72 0 0 0 4.442-4.442c1.349-2.756 1.349-5.844 0-8.6a9.8 9.8 0 0 0-3.566-3.961c-.824-.522-2.118-1.053-3.056-1.253a11 11 0 0 0-2.8-.206m2 1.578c1.758.298 3.253 1.068 4.504 2.318 1.258 1.258 2.025 2.757 2.324 4.54.1.593.1 1.975 0 2.568-.343 2.043-1.352 3.8-2.928 5.097-1.133.932-2.355 1.487-3.88 1.762-.482.087-1.706.121-2.207.06a8.2 8.2 0 0 1-2.653-.749l-.42-.194-.56.001c-.608.001-.541-.012-2.24.438a9 9 0 0 1-.936.207l-.257.026.025-.236c.023-.223.08-.462.463-1.936.315-1.212.308-1.513-.053-2.332-.756-1.717-.933-3.435-.541-5.248.512-2.37 2.141-4.451 4.349-5.554.905-.453 1.769-.701 2.93-.841.313-.038 1.715.011 2.08.073m-5.515 7.421c-.391.095-.651.559-.526.939.1.303.417.54.721.54.384 0 .76-.375.76-.758 0-.237-.189-.551-.395-.657a.95.95 0 0 0-.56-.064m4 0c-.391.095-.651.559-.526.939.1.303.417.54.721.54.384 0 .76-.375.76-.758 0-.237-.189-.551-.395-.657a.95.95 0 0 0-.56-.064m4 0c-.391.095-.651.559-.526.939.1.303.417.54.721.54.384 0 .76-.375.76-.758 0-.237-.189-.551-.395-.657a.95.95 0 0 0-.56-.064" fill-rule="evenodd"/></svg>

<svg fill="none" xmlns="http://www.w3.org/2000/svg" viewBox="0 0 24 24"><path d="M11.320 2.280 C 9.440 2.407,7.643 3.084,6.084 4.252 C 5.610 4.607,4.755 5.451,4.349 5.964 C 3.260 7.343,2.540 9.077,2.316 10.860 C 2.251 11.375,2.251 12.625,2.316 13.140 C 2.434 14.077,2.754 15.228,3.117 16.014 C 3.225 16.249,3.280 16.424,3.280 16.535 C 3.280 16.626,3.208 16.980,3.120 17.321 C 3.031 17.661,2.887 18.219,2.799 18.560 C 2.593 19.358,2.534 19.835,2.596 20.210 C 2.715 20.930,3.110 21.306,3.849 21.406 C 4.244 21.459,4.633 21.409,5.425 21.204 C 5.752 21.120,6.307 20.976,6.658 20.885 C 7.009 20.794,7.371 20.720,7.464 20.720 C 7.576 20.720,7.750 20.774,7.986 20.883 C 8.482 21.112,9.412 21.416,9.980 21.534 C 12.146 21.984,14.339 21.709,16.300 20.742 C 18.243 19.782,19.800 18.226,20.742 16.300 C 22.091 13.544,22.091 10.456,20.742 7.700 C 19.952 6.085,18.721 4.718,17.176 3.739 C 16.352 3.217,15.058 2.686,14.120 2.486 C 13.247 2.300,12.184 2.222,11.320 2.280 M13.320 3.858 C 15.078 4.156,16.573 4.926,17.824 6.176 C 19.082 7.434,19.849 8.933,20.148 10.716 C 20.248 11.309,20.248 12.691,20.148 13.284 C 19.805 15.327,18.796 17.084,17.220 18.381 C 16.087 19.313,14.865 19.868,13.340 20.143 C 12.858 20.230,11.634 20.264,11.133 20.203 C 10.137 20.084,9.376 19.869,8.480 19.454 L 8.060 19.260 7.500 19.261 C 6.892 19.262,6.959 19.249,5.260 19.699 C 4.886 19.798,4.465 19.891,4.324 19.906 L 4.067 19.932 4.092 19.696 C 4.115 19.473,4.172 19.234,4.555 17.760 C 4.870 16.548,4.863 16.247,4.502 15.428 C 3.746 13.711,3.569 11.993,3.961 10.180 C 4.473 7.810,6.102 5.729,8.310 4.626 C 9.215 4.173,10.079 3.925,11.240 3.785 C 11.553 3.747,12.955 3.796,13.320 3.858 M7.805 11.279 C 7.414 11.374,7.154 11.838,7.279 12.218 C 7.379 12.521,7.696 12.758,8.000 12.758 C 8.384 12.758,8.760 12.383,8.760 12.000 C 8.760 11.763,8.571 11.449,8.365 11.343 C 8.220 11.269,7.967 11.240,7.805 11.279 M11.805 11.279 C 11.414 11.374,11.154 11.838,11.279 12.218 C 11.379 12.521,11.696 12.758,12.000 12.758 C 12.384 12.758,12.760 12.383,12.760 12.000 C 12.760 11.763,12.571 11.449,12.365 11.343 C 12.220 11.269,11.967 11.240,11.805 11.279 M15.805 11.279 C 15.414 11.374,15.154 11.838,15.279 12.218 C 15.379 12.521,15.696 12.758,16.000 12.758 C 16.384 12.758,16.760 12.383,16.760 12.000 C 16.760 11.763,16.571 11.449,16.365 11.343 C 16.220 11.269,15.967 11.240,15.805 11.279 " stroke="none" fill-rule="evenodd" fill="currentColor"/></svg>
